teeny/solid/n64.svg

<svg width="15" height="15" viewBox="0 0 15 15" fill="none" xmlns="http://www.w3.org/2000/svg">
<path fill-rule="evenodd" clip-rule="evenodd" d="M5.29289 1H9.70711L10.7071 2H11.5C13.433 2 15 3.567 15 5.5V10.3377C15 11.2558 14.2558 12 13.3377 12C12.6222 12 11.987 11.5422 11.7607 10.8634L11.1396 9H10.405C10.1481 9 9.93303 9.19465 9.90747 9.45025L9.64677 12.0572C9.53648 13.1601 8.60841 14 7.5 14C6.39159 14 5.46352 13.1601 5.35323 12.0572L5.09253 9.45025C5.06697 9.19465 4.85189 9 4.59501 9H3.86038L3.23925 10.8634C3.01299 11.5422 2.37777 12 1.66228 12C0.744227 12 0 11.2558 0 10.3377V5.5C0 3.567 1.567 2 3.5 2H4.29289L5.29289 1ZM4 7V6H3V5H4V4H5V5H6V6H5V7H4ZM9 6H10V5H9V6ZM12 6V7H11V6H12Z" fill="black"/>
</svg>

<svg viewBox="0 0 15 15" xmlns="http://www.w3.org/2000/svg"><path fill-rule="evenodd" d="M5.29 1H9.7l.99 1h.79c1.93 0 3.5 1.56 3.5 3.5v4.83c0 .91-.75 1.66-1.67 1.66 -.72 0-1.36-.46-1.577-1.14l-.63-1.87h-.74c-.26 0-.48.19-.5.45l-.27 2.6c-.12 1.1-1.04 1.94-2.15 1.94 -1.11 0-2.04-.84-2.15-1.95l-.27-2.61c-.03-.26-.25-.46-.5-.46h-.74l-.63 1.86c-.23.67-.87 1.13-1.58 1.13 -.92 0-1.67-.75-1.67-1.67V5.43c0-1.94 1.567-3.5 3.5-3.5h.79l1-1Zm-1.3 6V6h-1V5h1V4h1v1h1v1h-1v1h-1Zm5-1h1V5h-1v1Zm3 0v1h-1V6h1Z"/></svg>
